X: 1
T: Hins Polska
N: efter Erik August Sallin, Tysslinge, N\"arke
N: learned from David Bastviken, Aug 1996
Z: John Chambers <jc@trillian.mit.edu>
O: N\"arke
R: Sl\"angpolska
M: 3/4
L: 1/8
K: A
|: c2 A2 E2 | c2 B>d c2 | c2 A2 E2   | c2 B>d c2 \
|  e2 d2 c2 | B2 AG E2  | F2 G>A B>G | A2 A2 z2 :|
|: A2 GA F>G | A2 A>F E2 | A2 GA F>G | A2 A>B c2 \
|  A2 GA F>G | A2 A>F E2 | EC DB, CA, | B,>C A,2 z2 :|
